static/img/in-field/switch-label-left.svg

<svg width="141" height="56" viewBox="0 0 141 56" fill="none" xmlns="http://www.w3.org/2000/svg">
<path d="M1.07324 37V21.2949H2.89941V35.3457H9.82812V37H1.07324ZM19.7246 37L19.3701 35.3242H19.2842C18.6969 36.0618 18.1097 36.5632 17.5225 36.8281C16.9424 37.0859 16.2155 37.2148 15.3418 37.2148C14.1745 37.2148 13.2578 36.9141 12.5918 36.3125C11.9329 35.7109 11.6035 34.8551 11.6035 33.7451C11.6035 31.3675 13.5049 30.1214 17.3076 30.0068L19.3057 29.9424V29.2119C19.3057 28.2881 19.1051 27.6077 18.7041 27.1709C18.3102 26.7269 17.6764 26.5049 16.8027 26.5049C15.8216 26.5049 14.7116 26.8057 13.4727 27.4072L12.9248 26.043C13.5049 25.7279 14.1387 25.4808 14.8262 25.3018C15.5208 25.1227 16.2155 25.0332 16.9102 25.0332C18.3138 25.0332 19.3522 25.3447 20.0254 25.9678C20.7057 26.5908 21.0459 27.5898 21.0459 28.9648V37H19.7246ZM15.6963 35.7432C16.8063 35.7432 17.6764 35.4388 18.3066 34.8301C18.944 34.2214 19.2627 33.3691 19.2627 32.2734V31.21L17.4795 31.2852C16.0615 31.3353 15.0374 31.5573 14.4072 31.9512C13.7842 32.3379 13.4727 32.943 13.4727 33.7666C13.4727 34.4111 13.666 34.9017 14.0527 35.2383C14.4466 35.5749 14.9945 35.7432 15.6963 35.7432ZM30.459 25.0332C32.0059 25.0332 33.2054 25.5632 34.0576 26.623C34.917 27.6758 35.3467 29.1689 35.3467 31.1025C35.3467 33.0361 34.9134 34.54 34.0469 35.6143C33.1875 36.6813 31.9915 37.2148 30.459 37.2148C29.6927 37.2148 28.9909 37.0752 28.3535 36.7959C27.7233 36.5094 27.1934 36.0726 26.7637 35.4854H26.6348L26.2588 37H24.9805V20.2852H26.7637V24.3457C26.7637 25.2552 26.735 26.0716 26.6777 26.7949H26.7637C27.5944 25.6204 28.8262 25.0332 30.459 25.0332ZM30.2012 26.5264C28.9837 26.5264 28.1064 26.8773 27.5693 27.5791C27.0322 28.2738 26.7637 29.4482 26.7637 31.1025C26.7637 32.7568 27.0394 33.9421 27.5908 34.6582C28.1423 35.3672 29.0267 35.7217 30.2441 35.7217C31.3398 35.7217 32.1562 35.3242 32.6934 34.5293C33.2305 33.7272 33.499 32.5778 33.499 31.0811C33.499 29.5485 33.2305 28.4062 32.6934 27.6543C32.1562 26.9023 31.3255 26.5264 30.2012 26.5264ZM43.6963 37.2148C41.9561 37.2148 40.5811 36.6849 39.5713 35.625C38.5687 34.5651 38.0674 33.0934 38.0674 31.21C38.0674 29.3122 38.5329 27.8047 39.4639 26.6875C40.402 25.5703 41.6589 25.0117 43.2344 25.0117C44.7096 25.0117 45.877 25.4987 46.7363 26.4727C47.5957 27.4395 48.0254 28.7178 48.0254 30.3076V31.4355H39.915C39.9508 32.8177 40.2982 33.8669 40.957 34.583C41.623 35.2992 42.5576 35.6572 43.7607 35.6572C45.0283 35.6572 46.2816 35.3923 47.5205 34.8623V36.4521C46.8903 36.7243 46.2923 36.9176 45.7266 37.0322C45.168 37.154 44.4912 37.2148 43.6963 37.2148ZM43.2129 26.5049C42.2676 26.5049 41.512 26.8128 40.9463 27.4287C40.3877 28.0446 40.0583 28.8968 39.958 29.9854H46.1133C46.1133 28.861 45.8626 28.0016 45.3613 27.4072C44.86 26.8057 44.1439 26.5049 43.2129 26.5049ZM53.1094 37H51.3262V20.2852H53.1094V37Z" fill="#252A2E"/>
<rect width="64" height="32" rx="16" transform="matrix(1 0 0 -1 70 44)" fill="#217CBB"/>
<path d="M131 28C131 35.1797 125.18 41 118 41C110.82 41 105 35.1797 105 28C105 20.8203 110.82 15 118 15C125.18 15 131 20.8203 131 28Z" fill="white"/>
</svg>

<svg width="141" height="56" fill="none" xmlns="http://www.w3.org/2000/svg"><path d="M1.073 37V21.295H2.9v14.05h6.93V37H1.072zm18.652 0l-.355-1.676h-.086c-.587.738-1.174 1.24-1.761 1.504-.58.258-1.308.387-2.181.387-1.168 0-2.084-.3-2.75-.903-.66-.601-.989-1.457-.989-2.567 0-2.377 1.902-3.624 5.705-3.738l1.998-.065v-.73c0-.924-.2-1.604-.602-2.041-.394-.444-1.028-.666-1.901-.666-.981 0-2.091.3-3.33.902l-.548-1.364a8.4 8.4 0 011.901-.741 8.318 8.318 0 012.084-.269c1.404 0 2.442.312 3.115.935.68.623 1.02 1.622 1.02 2.997V37h-1.32zm-4.029-1.257c1.11 0 1.98-.304 2.61-.913.638-.609.957-1.46.957-2.557V31.21l-1.784.075c-1.418.05-2.442.272-3.072.666-.623.387-.934.992-.934 1.816 0 .644.193 1.135.58 1.471.394.337.941.505 1.643.505zm14.763-10.71c1.547 0 2.746.53 3.599 1.59.859 1.053 1.289 2.546 1.289 4.48 0 1.933-.434 3.437-1.3 4.511-.86 1.067-2.055 1.6-3.588 1.6a5.19 5.19 0 01-2.105-.418 4.002 4.002 0 01-1.59-1.31h-.13L26.26 37H24.98V20.285h1.784v4.06c0 .91-.029 1.727-.086 2.45h.086c.83-1.175 2.062-1.762 3.695-1.762zm-.258 1.493c-1.217 0-2.095.351-2.632 1.053-.537.695-.805 1.87-.805 3.523 0 1.655.275 2.84.827 3.556.551.71 1.436 1.064 2.653 1.064 1.096 0 1.912-.398 2.45-1.193.536-.802.805-1.951.805-3.448 0-1.532-.269-2.675-.806-3.427-.537-.752-1.367-1.128-2.492-1.128zm13.495 10.689c-1.74 0-3.115-.53-4.125-1.59-1.002-1.06-1.504-2.532-1.504-4.415 0-1.898.466-3.405 1.397-4.523.938-1.117 2.195-1.675 3.77-1.675 1.476 0 2.643.487 3.502 1.46.86.967 1.29 2.246 1.29 3.836v1.128h-8.111c.036 1.382.383 2.43 1.042 3.147.666.716 1.6 1.074 2.804 1.074 1.267 0 2.52-.265 3.76-.795v1.59a9.114 9.114 0 01-1.794.58c-.559.122-1.236.183-2.03.183zm-.483-10.71c-.945 0-1.701.308-2.267.924-.558.616-.888 1.468-.988 2.556h6.155c0-1.124-.25-1.983-.752-2.578-.501-.601-1.217-.902-2.148-.902zM53.109 37h-1.783V20.285h1.783V37z" fill="#252A2E"/><rect width="64" height="32" rx="16" transform="matrix(1 0 0 -1 70 44)" fill="#217CBB"/><path d="M131 28c0 7.18-5.82 13-13 13s-13-5.82-13-13 5.82-13 13-13 13 5.82 13 13z" fill="#fff"/></svg>
